!!!COM: Sabram, Wadih
!!!CDT: b.1929
!!!OTL: National Anthem, Lebanon
!!!ENC: Davis, Matthew J.
!!Vocal Line Only
**kern
*clefG2
*k[f#]
*G:
*M4/4
=1-
1r
=2
1r
=3
1r
=4
1r
=5
1r
=6
1r
=7
1r
=8
2r
4r
8.d
16d
=9
2.g
8.a
16a
=10
4b
8.d
16d
4e
8.f#
16f#
=11
4g
4r
4r
8.d
16d
=12
2.g
8.a
16a
4b
8.dd
16cc
4b
8.a
16a
=14
4g
4r
4r
8.b
16cc
=15
4dd
8.dd
16dd
8dd
8cc
8.b
16cc
=16
4dd
8.dd
16dd
4dd
8.cc
16b
=17
4a
8.a
16a
8a
8g
8.f#
16g
=18
4a
8.a
16a
4a
8.d
16d
=19
4b
8.b
16b
4b
8.g
16d
=20
4e
8.e
16e
4e
8.cc
16a
=21
2.dd
8.f#
16f#
=22
2.g
4r
==|!
*-
